images/Price/Endocrinology .svg

<?xml-stylesheet type="text/css" href="./css/style.min.css"?>
<svg width="88" height="108" viewBox="0 0 88 108"  xmlns="http://www.w3.org/2000/svg">
<path d="M68.139 67.6424H56.2166C55.7808 66.0074 54.808 64.5705 53.4579 63.5677C58.1405 61.7239 62.1989 58.5565 65.1478 54.444C68.0968 50.3316 69.8117 45.4479 70.0875 40.3768C72.1575 39.9358 74.0113 38.7809 75.3312 37.1101C76.651 35.4393 77.3547 33.3565 77.3216 31.2189C77.2886 29.0812 76.5208 27.0217 75.1499 25.3934C73.779 23.765 71.8904 22.6693 69.8078 22.2939C68.839 16.079 65.7064 10.4178 60.9741 6.32978C56.2418 2.24175 50.2208 -0.0045166 43.9952 -0.0045166C37.7696 -0.0045166 31.7486 2.24175 27.0163 6.32978C22.284 10.4178 19.1514 16.079 18.1826 22.2939C16.1405 22.7068 14.2998 23.8139 12.9669 25.4311C11.634 27.0483 10.8892 29.0779 10.8565 31.1823C10.8238 33.2868 11.5052 35.3391 12.7872 36.9977C14.0692 38.6564 15.8746 39.8213 17.9029 40.2988C18.1697 45.3164 19.8443 50.1536 22.7311 54.2448C25.6179 58.336 29.5975 61.5122 34.2046 63.402C32.7778 64.416 31.7526 65.9079 31.3108 67.6132H19.8707C17.2583 67.6145 14.6719 68.136 12.2591 69.1481C9.84632 70.1602 7.65459 71.6429 5.80918 73.5115C3.96376 75.3801 2.50086 77.5979 1.50408 80.0382C0.507312 82.4785 -0.00378178 85.0934 2.10663e-05 87.7334V108.019H88V87.7334C88 82.4083 85.9081 77.3011 82.184 73.5338C78.4599 69.7666 73.4082 67.6476 68.139 67.6424ZM45.9533 66.0242H49.1558C49.6266 65.9991 50.0975 66.0712 50.5398 66.236C50.9821 66.4007 51.3866 66.6548 51.7286 66.9827C52.0707 67.3106 52.343 67.7054 52.5292 68.1431C52.7153 68.5808 52.8113 69.0523 52.8113 69.5287C52.8113 70.0051 52.7153 70.4766 52.5292 70.9143C52.343 71.352 52.0707 71.7468 51.7286 72.0747C51.3866 72.4026 50.9821 72.6567 50.5398 72.8215C50.0975 72.9862 49.6266 73.0583 49.1558 73.0332H45.934L45.9533 66.0242ZM42.0949 73.0332H38.3523C37.8815 73.0583 37.4106 72.9862 36.9683 72.8215C36.526 72.6567 36.1215 72.4026 35.7795 72.0747C35.4374 71.7468 35.1651 71.352 34.9789 70.9143C34.7928 70.4766 34.6968 70.0051 34.6968 69.5287C34.6968 69.0523 34.7928 68.5808 34.9789 68.1431C35.1651 67.7054 35.4374 67.3106 35.7795 66.9827C36.1215 66.6548 36.526 66.4007 36.9683 66.236C37.4106 66.0712 37.8815 65.9991 38.3523 66.0242H42.0757L42.0949 73.0332ZM73.4636 31.3597C73.4622 32.4281 73.1432 33.4713 72.5481 34.3543C71.9531 35.2373 71.1092 35.9192 70.1261 36.3118V26.4174C71.1077 26.8094 71.9505 27.4898 72.5454 28.3709C73.1404 29.2519 73.4602 30.2931 73.4636 31.3597ZM14.7197 31.3597C14.7188 30.3252 15.0168 29.3128 15.5771 28.447C16.1374 27.5811 16.9357 26.8995 17.874 26.4856V36.2338C16.9379 35.8169 16.1417 35.1345 15.5818 34.2694C15.0219 33.4042 14.7225 32.3935 14.7197 31.3597ZM21.7323 38.9926V26.4077C21.6707 23.413 22.201 20.4361 23.2924 17.6512C24.3837 14.8664 26.0141 12.3297 28.088 10.1898C30.1618 8.0499 32.6374 6.34982 35.3698 5.18919C38.1021 4.02857 41.0362 3.43074 44 3.43074C46.9639 3.43074 49.898 4.02857 52.6303 5.18919C55.3626 6.34982 57.8382 8.0499 59.9121 10.1898C61.9859 12.3297 63.6163 14.8664 64.7076 17.6512C65.799 20.4361 66.3294 23.413 66.2677 26.4077V38.9926C66.2649 44.622 64.1758 50.0461 60.4121 54.1962C56.6484 58.3462 51.4831 60.9211 45.934 61.4134V40.5815H51.9242C52.4358 40.5815 52.9265 40.3761 53.2883 40.0105C53.6501 39.6448 53.8534 39.1489 53.8534 38.6319C53.8534 38.1148 53.6501 37.6189 53.2883 37.2533C52.9265 36.8876 52.4358 36.6822 51.9242 36.6822H42.0757V61.4134C36.5249 60.9234 31.3572 58.3495 27.5915 54.1992C23.8258 50.049 21.7353 44.6235 21.7323 38.9926ZM84.1416 104.13H68.8914V90.2972C68.8914 89.7801 68.6881 89.2842 68.3263 88.9186C67.9646 88.553 67.4739 88.3475 66.9622 88.3475C66.4505 88.3475 65.9599 88.553 65.5981 88.9186C65.2363 89.2842 65.033 89.7801 65.033 90.2972V104.101H22.3979V90.2972C22.3979 89.7801 22.1947 89.2842 21.8329 88.9186C21.4711 88.553 20.9804 88.3475 20.4687 88.3475C19.9571 88.3475 19.4664 88.553 19.1046 88.9186C18.7428 89.2842 18.5395 89.7801 18.5395 90.2972V104.101H3.8584V87.7334C3.8584 83.4408 5.5451 79.3239 8.5477 76.2876C11.5503 73.2513 15.6231 71.5443 19.8707 71.5417H31.3011C31.7372 73.0925 32.6613 74.4576 33.9335 75.4303C35.2058 76.403 36.757 76.9303 38.3523 76.9324H42.0757V84.9357L35.0052 92.2956C34.6483 92.6666 34.4519 93.1656 34.4591 93.683C34.4663 94.2004 34.6766 94.6936 35.0438 95.0543C35.4109 95.415 35.9047 95.6135 36.4166 95.6061C36.9286 95.5988 37.4167 95.3863 37.7736 95.0153L44.0241 88.4938L50.5641 95.0445C50.9258 95.4071 51.4147 95.6104 51.9242 95.6099C52.3057 95.6083 52.6782 95.4924 52.9946 95.2768C53.3109 95.0613 53.5569 94.7558 53.7015 94.3989C53.846 94.0421 53.8826 93.6499 53.8066 93.2721C53.7306 92.8942 53.5455 92.5476 53.2746 92.2761L45.934 84.9162V76.9324H49.1365C50.7318 76.9303 52.283 76.403 53.5553 75.4303C54.8275 74.4576 55.7516 73.0925 56.1877 71.5417H68.139C72.3849 71.5469 76.4552 73.2551 79.4557 76.291C82.4563 79.327 84.1416 83.4425 84.1416 87.7334V104.13Z" fill="#87AD3B"/>
</svg>

<?xml-stylesheet type="text/css" href="/css/style.min.css"?><svg width="88" height="108" xmlns="http://www.w3.org/2000/svg"><path d="M68.139 67.642H56.217a7.47 7.47 0 00-2.76-4.074 26.208 26.208 0 0011.69-9.124 26.624 26.624 0 004.94-14.067 9.102 9.102 0 005.244-3.267 9.275 9.275 0 001.99-5.891 9.269 9.269 0 00-2.171-5.826 9.094 9.094 0 00-5.342-3.1A26.48 26.48 0 0060.974 6.33 25.969 25.969 0 0043.995-.005 25.969 25.969 0 0027.016 6.33a26.48 26.48 0 00-8.833 15.964 9.098 9.098 0 00-5.216 3.137 9.27 9.27 0 00-2.11 5.751 9.276 9.276 0 001.93 5.816 9.106 9.106 0 005.116 3.3 26.647 26.647 0 004.828 13.947 26.236 26.236 0 0011.474 9.157 7.458 7.458 0 00-2.894 4.211H19.87a19.7 19.7 0 00-7.612 1.535 19.868 19.868 0 00-6.45 4.364 20.107 20.107 0 00-4.305 6.526A20.276 20.276 0 000 87.733v20.286h88V87.733a20.2 20.2 0 00-5.816-14.2 19.776 19.776 0 00-14.045-5.89zm-22.186-1.618h3.203a3.439 3.439 0 012.573.959 3.542 3.542 0 010 5.092 3.44 3.44 0 01-2.573.958h-3.222l.02-7.009zm-3.858 7.01h-3.743a3.44 3.44 0 01-2.572-.96 3.542 3.542 0 010-5.092 3.466 3.466 0 012.572-.958h3.724l.019 7.01zM73.464 31.36a5.372 5.372 0 01-.916 2.994 5.286 5.286 0 01-2.422 1.958v-9.895a5.286 5.286 0 012.42 1.954c.594.88.914 1.922.918 2.989zm-58.744 0a5.355 5.355 0 01.857-2.913 5.272 5.272 0 012.297-1.961v9.748a5.301 5.301 0 01-2.292-1.965 5.383 5.383 0 01-.862-2.91zm7.012 7.633V26.408a22.721 22.721 0 011.56-8.757 22.533 22.533 0 014.796-7.461 22.262 22.262 0 017.282-5 22.07 22.07 0 0117.26 0 22.264 22.264 0 017.282 5 22.534 22.534 0 014.796 7.461 22.72 22.72 0 011.56 8.757v12.585a22.652 22.652 0 01-5.856 15.203 22.196 22.196 0 01-14.478 7.217V40.582h5.99a1.92 1.92 0 001.364-.572 1.96 1.96 0 000-2.757 1.919 1.919 0 00-1.364-.57h-9.848v24.73A22.196 22.196 0 0127.59 54.2a22.651 22.651 0 01-5.859-15.206zm62.41 65.137h-15.25V90.297a1.96 1.96 0 00-.566-1.378 1.919 1.919 0 00-2.728 0 1.96 1.96 0 00-.565 1.378v13.804H22.398V90.297a1.96 1.96 0 00-.565-1.378 1.92 1.92 0 00-1.364-.572 1.92 1.92 0 00-1.364.572 1.96 1.96 0 00-.566 1.378v13.804H3.86V87.733a16.28 16.28 0 014.689-11.445 15.937 15.937 0 0111.323-4.746H31.3a7.422 7.422 0 002.633 3.888 7.29 7.29 0 004.418 1.502h3.724v8.004l-7.07 7.36a1.962 1.962 0 00.038 2.758 1.919 1.919 0 002.73-.039l6.25-6.521 6.54 6.55c.362.363.85.566 1.36.566a1.915 1.915 0 001.07-.333c.317-.216.563-.521.708-.878a1.969 1.969 0 00-.427-2.123l-7.341-7.36v-7.984h3.203a7.29 7.29 0 004.418-1.502 7.422 7.422 0 002.633-3.888h11.951a15.938 15.938 0 0111.317 4.749 16.28 16.28 0 014.686 11.442v16.397z" fill="#87AD3B"/></svg>
